X:23
T:New Allemand  THO4.023, The
M:2/4
L:1/8
Z:vmp. Peter Dunk 2010/11.from a transcription by Fynn Titford-Mock 2007
B:Thompson's Compleat Collection of 200 Favourite Country Dances Volume IV.
Q:1/4=140
K:D
AA A2|B/d/c/e/ d2|defg|f2e2|fg a2|ga b2|agfe|d>e d2:|
|:a2 fd|dcBA|Bcde|fd d/e/f/g/|a2 fd|dcBA|Bdce|d>e d2:|
|:D2 EF|G/F/G/A/ B2|AFED "G. Fl."|[Dd][cC][BB,][AA,]|\
D2 EF|G/F/G/A/ B2|A>FE>F|E2D2 :|
